X:1
T:AULD LAND SYNE
L:1/8
Q:1/4=120
M:4/4
I:linebreak $
K:G
V:1 treble 
V:1
"^Slow" D | G>G G>B A>GAB | G<G B>d e3 g | d>B B>G A>GAB | G>EE>D G2 G :: e |$ d>B B>G A>GAB | %7
 d>B B>d e3 g | d>BBG A>GA>B | G>EE>D G2 G :| %10
